X:4759
L:1/8
Q:3/8=110
M:6/8
K:Gmin
 G2 B/A/ BGd | g^fg d3 | e<cB ABc | dBG A^FD | G2 B/A/ BGd | g^fg d3 | edc dfb | Tc3 B3 :: 
 dfd =Bdf | _agf gec | cec Ace | dBG A^FD | G2 B/A/ BGd | g^fg afd | e^fg c^fg | ag^f g3"^*" :|

